client/resources/iconsets/breeze/src/svg/16x16/icon_edit_recipient.svg

<svg xmlns="http://www.w3.org/2000/svg" width="16" height="16" viewBox="0 0 16 16">
 <path style="fill:#6d6d70"
       d="M 6.5 1.5 C 4.8431457 1.5 3.4999999 2.8431457 3.5 4.5 C 3.5 6.1568542 4.8431458 7.5 6.5 7.5 C 8.1568542 7.5 9.5 6.1568542 9.5 4.5 C 9.5000001 2.8431457 8.1568543 1.5 6.5 1.5 z M 6.5 8.5 C 3.1862915 8.5 0.50000007 10.738576 0.5 13.5 C 0.5 14.604569 3.1862915 15.5 6.5 15.5 C 9.8137085 15.5 12.5 14.604569 12.5 13.5 C 12.5 10.738576 9.8137085 8.5 6.5 8.5 z "
       />
 <path style="fill:#19b5f1"
       d="M 14.210938 5 C 14.074402 5 13.936096 5.0541436 13.830078 5.1601562 L 12.783203 6.2128906 L 14.787109 8.21875 L 15.841797 7.1699219 C 16.05383 6.9578975 16.05383 6.624134 15.841797 6.4121094 L 14.589844 5.1601562 C 14.483827 5.054144 14.347473 5 14.210938 5 z M 12.0625 6.9316406 L 7 11.996094 L 7 14 L 9.0039062 14 L 14.068359 8.9375 L 12.0625 6.9316406 z "
       />
</svg>

<svg xmlns="http://www.w3.org/2000/svg" width="16" height="16"><path d="M6.5 1.5a3 3 0 1 0 0 6 3 3 0 1 0 0-6zm0 7c-3.314 0-6 2.239-6 5 0 1.105 2.686 2 6 2s6-.895 6-2c0-2.761-2.686-5-6-5z" fill="#6d6d70"/><path d="M14.211 5a.54.54 0 0 0-.381.16l-1.047 1.053 2.004 2.006 1.055-1.049a.53.53 0 0 0 0-.758L14.59 5.16c-.106-.106-.242-.16-.379-.16zm-2.148 1.932L7 11.996V14h2.004l5.064-5.062-2.006-2.006z" fill="#19b5f1"/></svg>
